X:34
T:Give The Fiddler A Dram
S:Bernie Waugh
R:Reel
M:2/4
L:1/16
K:C
|:GF|\
"G"D2~GF GABG|"F"A[A2F2][AF] [A4F4]|"Dm"FGAB cAdc|"G"B[B2G2][GB] GAGF|
"G"D2~GF GABG|"F"A[A2F2][AF] FGA2|"Dm"^cd2e ded=c|"G"BGAF G2:|
|:z^A|\
"G"Bg2^f "G7"gag=f|"C"ec~cB cdcB|"A"Aa2^g "A7"aba=g|"D"^fde^c "D7"ded=c|
"G"Bg~g^f gag=f|"C"ec~cB cde2|"F"f3g fedc|"G"BGAF G2:|

